Icons/SVG/brands/npm.svg

<?xml version="1.0" encoding="UTF-8"?><svg id="NPM" xmlns="http://www.w3.org/2000/svg" viewBox="0 0 24 24"><path d="m22,2v-1H2v1h-1v20h1v1h20v-1h1V2h-1Zm-10,6v11h-7V5h14v14h-3v-11h-4Z"/></svg>

<svg width="24" height="24" viewBox="0 0 24 24" fill="none" xmlns="http://www.w3.org/2000/svg">
<path d="M22 2V1H2V2H1V22H2V23H22V22H23V2H22ZM12 8V19H5V5H19V19H16V8H12Z" fill="black"/>
</svg>
